X: 783
T: Zuo junxie
%%abc-version 2.0
%%abcx-abcm2ps-target-version 5.9.1 (29 Sep 2008)
%%abc-creator hum2abc beta
%%abcx-conversion-date 2013/10/02 07:52:30
%%abc-edited-by Helmut Schaffrath
%%humdrum-veritas 3318958460
%%humdrum-veritas-data 2804298289
%%continueall 1
%%barnumbers 0
L: 1/8
M: 2/4
K: Eb
B c e f [I:setbarnb 1]| 
d c B G | 
B e B G | 
F4 | 
B c e f | 
d c B G | 
B e B G | 
F4 | 
F GB2 | 
e2c B | 
B e B G | 
E4 | 
B,B,2G | 
F GE2 | 
GF2C | 
B,4 |]  



